packages/ffe-icons/icons/open/300/lg/crop_din.svg

<svg xmlns="http://www.w3.org/2000/svg" height="40" viewBox="0 -960 960 960" width="40"><path d="M202.565-140.001q-25.788 0-44.176-18.388t-18.388-44.176v-554.87q0-25.788 18.388-44.176t44.176-18.388h554.87q25.788 0 44.176 18.388t18.388 44.176v554.87q0 25.788-18.388 44.176t-44.176 18.388h-554.87Zm0-50.255h554.87q5.385 0 8.847-3.462 3.462-3.462 3.462-8.847v-554.87q0-5.385-3.462-8.847-3.462-3.462-8.847-3.462h-554.87q-5.385 0-8.847 3.462-3.462 3.462-3.462 8.847v554.87q0 5.385 3.462 8.847 3.462 3.462 8.847 3.462Zm-12.309 0V-769.744-190.256Z"/></svg>

<svg xmlns="http://www.w3.org/2000/svg" viewBox="0 -960 960 960" width="32" height="32"><path d="M202.57-140q-25.79 0-44.18-18.39T140-202.57v-554.86q0-25.79 18.39-44.18T202.57-820h554.86q25.79 0 44.18 18.39T820-757.43v554.86q0 25.79-18.39 44.18T757.43-140H202.57Zm0-50.26h554.86q5.39 0 8.85-3.46t3.46-8.85v-554.86q0-5.39-3.46-8.85t-8.85-3.46H202.57q-5.39 0-8.85 3.46t-3.46 8.85v554.86q0 5.39 3.46 8.85t8.85 3.46Zm-12.31 0v-579.48 579.48Z"/></svg>
